X:345
T:A Double Jig
B:Joyce, P. W.; "Old Irish Folk Music and Songs"
R:jig
A:Kilkenny
O:Irish
L:1/8
M:6/8
K:G
gdB cBA|GDE G2 A|BGG dGG|BAA ABd|
gdB cBA|GDE G2 A|BdB AGA|BGG G2::B/c/|
dgg gfg|eaa a2 c'|B/G/AG E2 d|egg g2 B/A/|
gdB cBA|GDE G2 A|B<dB AGA BGG G2:|
